X:1
T:Irons, 86.86.86
T:Irons, 86.86.86
T:Herbert Stephen Irons, 1894
T:Public Domain Courtesy of the Cyber Hymnal™
C:Herbert Stephen Irons, 1894
Z:Public Domain
Z:Courtesy of the Cyber Hymnal™
%%score ( 1 2 ) ( 3 4 )
L:1/8
Q:1/4=115
M:4/4
K:Bb
V:1 treble 
V:2 treble 
V:3 bass 
V:4 bass 
V:1
 [DF]2 | [FB]2 [Fd]2 [Gc]2 [FA]2 | (cB) (AG) F2 B2 | [Dd]2 [Ge]2 [Fd]2 c2 | [DB]6 F2 | %5
 [Fd]2 (d>c) [FB]2 [Fd]2 | [Ge]2 [Fc]2 d3 z d | [=Ed]2 (cB) [EA]2 [EG]2 | F6 F2 | %9
 (GF) (GA) B3 z B | cB (cd) [Ge]2 [Ee]2 | [Fd]2 [Ge]2 [Fd]2 c2 | [DB]6 |] %13
V:2
 x2 | x8 | D2 E2 F2 (FE) | x6 (FE) | x6 F2 | x2 F2 x4 | x4 F2 D2 x | x2 =E2 x4 | F6 F2 | %9
 F2 E2 D2 D2 x | F2 F2 x4 | x6 (FE) | x6 |] %13
V:3
 [B,,B,]2 | [B,D]2 B,2 [E,E]2 [F,C]2 | [G,B,]2 [E,B,]2 [D,B,]2 F,2 | %3
 [B,,B,]2 [E,B,]2 [F,B,]2 [F,A,]2 | [B,,B,]6 F,2 | B,2 ([B,D]>[CE]) [DF]2 B,2 | %6
 [G,B,]2 [A,C]2 B,2 [B,,B,]2 x | [C,B,]2 (A,G,) [C,C]2 [C,B,]2 | [F,A,]6 [D,B,]2 | %9
 [E,B,]2 (EC) [G,B,]2 [G,B,]2 x | [F,B,]2 [F,_A,]2 [E,G,]2 [C,=A,]2 | %11
 [B,,B,]2 [E,B,]2 [F,B,]2 [F,A,]2 | [B,,B,]6 |] %13
V:4
 x2 | x2 B,2 x4 | x6 (D,C,) | x8 | x6 F,2 | B,2 x2 B,2 x2 | x4 B,2 x3 | x2 C,2 x4 | x8 | %9
 x2 C,2 x5 | x8 | x8 | x6 |] %13

